X: 11261
T: the Banks of Forth by Mr Oswald
C: James Oswald
%R: air, strathspey
B: James Oswald "The Caledonian Pocket Companion" v.1 b.1 p.26 #1
Z: 2020 John Chambers <jc:trillian.mit.edu>
M: C
L: 1/16
K: D
"_Slow"TF3E |\
D4 F3G A4 d3e | f3g (fe)(dc) B6 d2 | A4(Bc)d3 (BA)(GF) TE2D2 | G3A (BA)(GF) E4 TF3E |\
D4 TF3G A4 d3e |
f3g fedc B6 c2 | d2e2 (fga2) Te6 dc | B2cd B3A A6 |] A2 |\
d2(c2d2)e2 (fg)(fg) a2c2 | TB2A2B2c2 Td6 F2 | G2F2G2A2 B2gf e2d2 |
c2(de) (dc)(BA) A6 A2 |\
(B2G2)B2d2 (A2F2D2)F2 | G2B2 e2(fg) c6 A2 | (BdcB AGFE) D4 a2(gf) | e2(fg) (fe)(dc) d4 |]
